X: 27535
T: Monaghan Twig, The
R: reel
M: 4/4
K: Amixolydian
A3G cdec|cAAG EDEB|~A3B cded|BAGB dfed|
cAAB cAec|cAAG EDEB|~A3B cded|BAGB dfeA||
(3Bcd ef gfed|(3Bcdef edeA|(3Bcd ef gfge|dBGB dfeA|
(3Bcd ed cded|cAAB cdef|gfge dfed|BAGB dfec||

